F[BALLADE
CUT[Graserin und Reiter
    Es ging ein Maedchen grasen]
CNR[wohl in den gruenen Wald.]
REG[Mitteleuropa, Deutschland (BRD) , Hessen, Wuerges]
SRC[7, S. 148
    1904 aufgezeichnet]
KEY[Q0149H 08  G 4/4]
MEL[5_  1_3_3_5_  1_3_3_
    5_  5_.44_3_  5__2_
    23  4_6_6_4_  3_5_5_
    3_  2_2_5_54  3_5_5_
    44  4_6_6_4_  3_5_5_
    3_  2_2_5_54  3__0_ //] >>
FCT[Ballade, Verfuehrung, Verlassen des Elternhauses]
CMT[Angegebenen Taktwechsel weggelassen (nicht vorhanden) .]
